icons/syringe-line.svg

<svg viewBox="0 0 24 24" fill="currentColor" xmlns="http://www.w3.org/2000/svg">
    <path d="M21.6779 7.97918L20.2637 9.39339L18.1424 7.27207L16.021 9.39339L19.5566 12.9289L18.1424 14.3431L17.4353 13.636L11.0713 20H5.41444L3.29312 22.1213L1.87891 20.7071L4.00023 18.5858V12.9289L10.3642 6.56497L9.65708 5.85786L11.0713 4.44365L14.6068 7.97918L16.7281 5.85786L14.6068 3.73654L16.021 2.32233L21.6779 7.97918ZM16.021 12.2218L11.7784 7.97918L10.3642 9.39339L12.4855 11.5147L11.0713 12.9289L8.94997 10.8076L7.53576 12.2218L9.65708 14.3431L8.24287 15.7574L6.12155 13.636L6.00023 13.7574V18H10.2429L16.021 12.2218Z"/>
</svg>

<svg xmlns="http://www.w3.org/2000/svg" viewBox="0 0 24 24">
    <g>
        <path fill="none" d="M0 0H24V24H0z"/>
        <path d="M21.678 7.98l-1.415 1.413-2.12-2.12-2.122 2.12 3.535 3.536-1.414 1.414-.707-.707L11.071 20H5.414l-2.121 2.121-1.414-1.414L4 18.586v-5.657l6.364-6.364-.707-.707 1.414-1.414 3.536 3.535 2.12-2.121-2.12-2.121 1.414-1.415 5.657 5.657zm-5.657 4.242l-4.243-4.243-1.414 1.414 2.121 2.122-1.414 1.414-2.121-2.121-1.414 1.414 2.12 2.121-1.413 1.414-2.122-2.121-.121.121V18h4.243l5.778-5.778z"/>
    </g>
</svg>
